lesser-fortune.svg

<svg width="96" height="128" viewBox="0 0 6 8" xmlns="http://www.w3.org/2000/svg"><path d="m3 0 1 1-2 2 1 1 1-1-2-2m-1 3 1 1-2 2 1 1 1-1-2-2m5-1 1 1-2 2 1 1 1-1-2-2"/></svg>

<svg width="96" height="128" viewBox="0 0 6 8" xmlns="http://www.w3.org/2000/svg"><path d="M3 0 4 1 2 3 3 4 4 3 2 1M1 4 2 5 0 7 1 8 2 7 0 5M5 4 6 5 4 7 5 8 6 7 4 5"/></svg>
